X:1
T:Title
%%score { ( 1 3 ) | ( 2 4 ) }
L:1/8
M:4/4
K:F
V:1 treble nm="Grand Piano"
V:3 treble 
V:2 bass 
V:4 bass 
V:1
 z4 z2[Q:1/4=100] F>G | A2 B2 A2 F2 | [CA]GFE F2 FA | c2 d2 c2 A2 | %4
[M:9/8] AGF- F [EG]2- [EG][EG][FA] |[M:4/4] [GB]2 [Ac]2 [GB]2 [EG]2 | [Ec][GB][FA][EG] A2 F2 | %7
 [Fd]2 [Fd]2 [Fc]2 [CFA]2 | [B,EG]F [B,EG]2 [A,F]4 | [CAc]3 [CGB] [CFA]2 [CAc]2 | %10
 .[CGc]2 [GB][FA] [EG]2 [Ec]>[Ec] | [Fc]6 z2 | [EG]6 z2 | [Fc]3 [DFB] [CFA]2 [CAc]2 | %14
 .[CGc]2 [GB]A [CEG]2 [CFA]>[CFA] | [DFB]2 [DG]>[DG] F2 E2 |[M:3/4] F6 |] %17
V:2
 z4 z2 [F,A,]>[F,A,F] | [F,CF]2 [F,DF]2 [F,CF]2 [F,A,]2 | z B,A,G, [F,A,C]2 C[K:treble]F | %3
 [F,A,F]2 [F,B,F]2 [F,A,F]2 [F,CF]2 |[M:9/8][K:bass] [D,=B,]2 [D,B,]- [D,B,] [C,C]2- [C,C] [C,C]2 | %5
[M:4/4] [C,C]2 [C,C]2 [C,C]2 [C,C]2 | [C,C][C,C][C,C][C,C] [F,CF]2 [F,A,]2 | %7
 [B,,B,]2 [D,B,]2 [F,A,]2 F,2 | z A, C,2 F,4 | F,3 F, F,2 F,2 | %10
 z[K:treble] B[K:bass] [F,C]2 [C,C]2 [C,G,]>[C,G,] | [F,A,]2 F,>F, F,2 E,>E, | %12
 C,2 C,>C, C,2 [C,G,]2 | [F,A,]3 F, F,2 F,2 | z[K:treble] B z F[K:bass] C,2 F,>F, | %15
 B,,2 [B,,B,]>[B,,B,] [C,A,C]2 [C,G,C]2 |[M:3/4] [F,A,C]6 |] %17
V:3
 x8 | x8 | E2 z2 z4 | x8 |[M:9/8] .F3 z3 z3 |[M:4/4] x8 | x8 | x8 | x8 | x8 | x8 | %11
 z2 A,>A, A,2 [CGB]>[CFA] | C2 C>C C2 [Ec]2 | x8 | x8 | x8 |[M:3/4] x6 |] %17
V:4
 x8 | x8 | C,2 [C,C]2 z2 [F,A,]2[K:treble] | x8 |[M:9/8][K:bass] x9 |[M:4/4] x8 | x8 | x8 | %8
 C,2 z2 z4 | x8 | E,2[K:treble][K:bass] z2 z4 | x8 | x8 | x8 | E,2[K:treble] [F,C]2[K:bass] z4 | %15
 x8 |[M:3/4] x6 |] %17

